src/assets/SmileasyPaymentPlan/monthly.svg

<svg height="23" viewBox="0 0 24 23" width="24" xmlns="http://www.w3.org/2000/svg"><path d="m9 9h1.5v1.5h-1.5zm4.5 9h1.5v1.5h-1.5zm4.5-9h1.5v1.5h-1.5zm-4.5 0h1.5v1.5h-1.5zm-4.5 3h1.5v1.5h-1.5zm-4.5 0h1.5v1.5h-1.5zm13.5 0h1.5v1.5h-1.5zm-4.5 0h1.5v1.5h-1.5zm-4.5 3h1.5v1.5h-1.5zm-4.5 0h1.5v1.5h-1.5zm13.5 0h1.5v1.5h-1.5zm-4.5 0h1.5v1.5h-1.5zm-4.5 3h1.5v1.5h-1.5zm-4.5 0h1.5v1.5h-1.5zm19.5-16.5v21h-24v-21h4.5v-1.5h1.5v1.5h12v-1.5h1.5v1.5zm-22.5 1.5v3h21v-3h-3v1.5h-1.5v-1.5h-12v1.5h-1.5v-1.5zm21 18v-13.5h-21v13.5z" opacity=".3"/></svg>

<?xml version="1.0" encoding="UTF-8"?>
<svg width="24px" height="23px" viewBox="0 0 24 23" version="1.1" xmlns="http://www.w3.org/2000/svg" xmlns:xlink="http://www.w3.org/1999/xlink">
    <title>monthly</title>
    <g id="Design" stroke="none" stroke-width="1" fill="none" fill-rule="evenodd" opacity="0.5">
        <g id="Smileeasy-Payment-Plan" transform="translate(-978.000000, -6918.000000)" fill="#000000" fill-rule="nonzero">
            <g id="Online-Calculator" transform="translate(0.000000, 5505.000000)">
                <g id="Group-24" transform="translate(295.000000, 232.000000)">
                    <g id="Group-19" transform="translate(667.000000, 1181.000000)">
                        <g id="Calendar" transform="translate(16.000000, 0.000000)">
                            <path d="M9,9 L10.5,9 L10.5,10.5 L9,10.5 L9,9 Z M13.5,18 L15,18 L15,19.5 L13.5,19.5 L13.5,18 Z M18,9 L19.5,9 L19.5,10.5 L18,10.5 L18,9 Z M13.5,9 L15,9 L15,10.5 L13.5,10.5 L13.5,9 Z M9,12 L10.5,12 L10.5,13.5 L9,13.5 L9,12 Z M4.5,12 L6,12 L6,13.5 L4.5,13.5 L4.5,12 Z M18,12 L19.5,12 L19.5,13.5 L18,13.5 L18,12 Z M13.5,12 L15,12 L15,13.5 L13.5,13.5 L13.5,12 Z M9,15 L10.5,15 L10.5,16.5 L9,16.5 L9,15 Z M4.5,15 L6,15 L6,16.5 L4.5,16.5 L4.5,15 Z M18,15 L19.5,15 L19.5,16.5 L18,16.5 L18,15 Z M13.5,15 L15,15 L15,16.5 L13.5,16.5 L13.5,15 Z M9,18 L10.5,18 L10.5,19.5 L9,19.5 L9,18 Z M4.5,18 L6,18 L6,19.5 L4.5,19.5 L4.5,18 Z M24,1.5 L24,22.5 L0,22.5 L0,1.5 L4.5,1.5 L4.5,0 L6,0 L6,1.5 L18,1.5 L18,0 L19.5,0 L19.5,1.5 L24,1.5 Z M1.5,3 L1.5,6 L22.5,6 L22.5,3 L19.5,3 L19.5,4.5 L18,4.5 L18,3 L6,3 L6,4.5 L4.5,4.5 L4.5,3 L1.5,3 Z M22.5,21 L22.5,7.5 L1.5,7.5 L1.5,21 L22.5,21 Z" id="monthly" opacity="0.600000024"></path>
                        </g>
                    </g>
                </g>
            </g>
        </g>
    </g>
</svg>
